src/actions/16/primarykey_constraint.svg

<svg viewBox="0 0 16 16" xmlns="http://www.w3.org/2000/svg">
 <defs>
  <style type="text/css">.ColorScheme-Text {
        color:#2e3440;
      }</style>
 </defs>
 <path class="ColorScheme-Text" d="m4 2v12h1v-6h4a3 3 0 0 0 3-3 3 3 0 0 0-3-3h-4-1zm1 1h4a2 2 0 0 1 2 2 2 2 0 0 1-2 2h-4v-4z" fill="currentColor"/>
</svg>

<svg xmlns="http://www.w3.org/2000/svg" viewBox="0 0 16 16">
  <defs id="defs3051">
    <style type="text/css" id="current-color-scheme">
      .ColorScheme-Text {
        color:#2e3440;
      }
      </style>
  </defs>
 <path style="fill:currentColor;fill-opacity:1;stroke:none" 
     d="M 4 2 L 4 14 L 5 14 L 5 8 L 9 8 A 3.000015 3.000015 0 0 0 12 5 A 3.000015 3.000015 0 0 0 9 2 L 5 2 L 4 2 z M 5 3 L 9 3 A 2 2 0 0 1 11 5 A 2 2 0 0 1 9 7 L 5 7 L 5 3 z "
     class="ColorScheme-Text"
     />
</svg>
